fs/lasso_20_regular.svg

<svg viewBox="0 0 20 20" fill="none" xmlns="http://www.w3.org/2000/svg" height="1em" width="1em">
  <path d="M8.16212 2.21224C8.75272 2.07336 9.36811 2 10 2C10.6319 2 11.2473 2.07336 11.8379 2.21224C12.1067 2.27545 12.2734 2.5446 12.2102 2.81341C12.1469 3.08222 11.8778 3.2489 11.609 3.18569C11.0929 3.06432 10.5543 3 10 3C9.44574 3 8.90714 3.06432 8.39102 3.18569C8.12221 3.2489 7.85306 3.08222 7.78985 2.81341C7.72663 2.5446 7.89331 2.27545 8.16212 2.21224ZM6.48118 3.35616C6.6266 3.59091 6.55417 3.8991 6.31942 4.04451C5.39652 4.61618 4.61618 5.39652 4.04451 6.31942C3.8991 6.55417 3.59092 6.6266 3.35616 6.48118C3.12141 6.33577 3.04898 6.02759 3.19439 5.79283C3.84745 4.73853 4.73853 3.84745 5.79283 3.19439C6.02759 3.04898 6.33577 3.12141 6.48118 3.35616ZM13.5188 3.35616C13.6642 3.12141 13.9724 3.04898 14.2072 3.19439C15.2615 3.84745 16.1525 4.73853 16.8056 5.79283C16.951 6.02759 16.8786 6.33577 16.6438 6.48118C16.4091 6.6266 16.1009 6.55417 15.9555 6.31942C15.3838 5.39652 14.6035 4.61618 13.6806 4.04451C13.4458 3.8991 13.3734 3.59092 13.5188 3.35616ZM2.81341 7.78984C3.08222 7.85306 3.2489 8.12221 3.18569 8.39102C3.06432 8.90714 3 9.44574 3 10C3 10.5543 3.06432 11.0929 3.18569 11.609C3.2489 11.8778 3.08222 12.1469 2.81341 12.2102C2.5446 12.2734 2.27545 12.1067 2.21224 11.8379C2.07336 11.2473 2 10.6319 2 10C2 9.36811 2.07336 8.75272 2.21224 8.16212C2.27545 7.89331 2.5446 7.72663 2.81341 7.78984ZM17.1866 7.78985C17.4554 7.72663 17.7246 7.89331 17.7878 8.16212C17.9266 8.75272 18 9.36811 18 10C18 10.6319 17.9266 11.2473 17.7878 11.8379C17.7246 12.1067 17.4554 12.2734 17.1866 12.2102C16.9178 12.1469 16.7511 11.8778 16.8143 11.609C16.9357 11.0929 17 10.5543 17 10C17 9.44574 16.9357 8.90714 16.8143 8.39102C16.7511 8.12221 16.9178 7.85306 17.1866 7.78985ZM3.35616 13.5188C3.59091 13.3734 3.8991 13.4458 4.04451 13.6806C4.61618 14.6035 5.39652 15.3838 6.31942 15.9555C6.55417 16.1009 6.6266 16.4091 6.48118 16.6438C6.33577 16.8786 6.02759 16.951 5.79283 16.8056C4.73853 16.1525 3.84745 15.2615 3.19439 14.2072C3.04898 13.9724 3.12141 13.6642 3.35616 13.5188ZM16.9342 14.2481C17.0712 14.0083 16.988 13.7029 16.7482 13.5659C16.5086 13.4289 16.2031 13.5124 16.066 13.7519L16.0636 13.756L16.0497 13.7791C16.0367 13.8005 16.016 13.8337 15.9877 13.877C15.9311 13.9636 15.8443 14.0904 15.7274 14.2438C15.493 14.5514 15.1404 14.9628 14.6708 15.3737C14.6393 15.4013 14.6073 15.4288 14.5747 15.4563C13.5586 14.6639 12.1996 14 10.5002 14C8.97904 14 8.013 14.9003 8.01294 16C8.01288 17.0997 8.97889 18 10.5001 18C12.1729 18 13.5184 17.4308 14.5329 16.7422C14.5714 16.7792 14.6093 16.8164 14.6465 16.8535C15.1178 17.3249 15.4725 17.7977 15.7089 18.1523C15.8268 18.3292 15.9146 18.4756 15.972 18.5762C16.0007 18.6264 16.0218 18.6651 16.0353 18.6903L16.0497 18.7178L16.053 18.7242C16.1766 18.9708 16.4767 19.0706 16.7235 18.9472C16.9705 18.8238 17.0701 18.5225 16.9467 18.2755C16.9467 18.2755 16.8178 18.0411 16.946 18.2743L16.9442 18.2707L16.9383 18.2592C16.9334 18.2497 16.9265 18.2365 16.9176 18.2198C16.8998 18.1865 16.8741 18.1392 16.8403 18.0801C16.7728 17.9619 16.673 17.7958 16.541 17.5977C16.2775 17.2023 15.8822 16.6751 15.3536 16.1465L15.3315 16.1244C15.8608 15.6609 16.2575 15.1981 16.5228 14.8499C16.6559 14.6753 16.7566 14.5286 16.825 14.4238C16.8592 14.3714 16.8854 14.3294 16.9036 14.2996C16.9127 14.2846 16.9198 14.2727 16.9249 14.2641L16.9311 14.2536C16.812 14.4436 16.9342 14.2481 16.9342 14.2481ZM10.5002 15C11.8003 15 12.8759 15.4631 13.7289 16.0722C12.8787 16.5981 11.8033 17 10.5001 17C9.37164 17 9.01292 16.4003 9.01294 16C9.01296 15.5997 9.37181 15 10.5002 15Z" fill="#212121"/>
</svg>

<svg viewBox="0 0 20 20" fill="none" xmlns="http://www.w3.org/2000/svg" height="1em" width="1em">
  <path d="M8.162 2.212a8.021 8.021 0 0 1 3.676 0 .5.5 0 0 1-.229.974 7.021 7.021 0 0 0-3.218 0 .5.5 0 0 1-.229-.974Zm-1.68 1.144a.5.5 0 0 1-.163.689 7.04 7.04 0 0 0-2.274 2.274.5.5 0 1 1-.85-.526 8.039 8.039 0 0 1 2.598-2.599.5.5 0 0 1 .688.162Zm7.037 0a.5.5 0 0 1 .688-.162 8.04 8.04 0 0 1 2.599 2.599.5.5 0 0 1-.85.526 7.04 7.04 0 0 0-2.275-2.274.5.5 0 0 1-.162-.689ZM2.813 7.79a.5.5 0 0 1 .373.601 7.021 7.021 0 0 0 0 3.218.5.5 0 0 1-.974.229 8.021 8.021 0 0 1 0-3.676.5.5 0 0 1 .601-.372Zm14.374 0a.5.5 0 0 1 .6.372 8.026 8.026 0 0 1 0 3.676.5.5 0 0 1-.973-.229 7.02 7.02 0 0 0 0-3.218.5.5 0 0 1 .373-.601Zm-13.83 5.729a.5.5 0 0 1 .688.162 7.04 7.04 0 0 0 2.274 2.275.5.5 0 1 1-.526.85 8.04 8.04 0 0 1-2.599-2.599.5.5 0 0 1 .162-.688Zm13.577.73a.5.5 0 1 0-.868-.497l-.002.004-.014.023a6.272 6.272 0 0 1-.322.465 7.796 7.796 0 0 1-1.153 1.212C13.559 14.664 12.2 14 10.5 14c-1.521 0-2.487.9-2.487 2s.966 2 2.487 2c1.673 0 3.018-.57 4.033-1.258l.114.111a8.622 8.622 0 0 1 1.325 1.723c.029.05.05.09.063.114l.015.028.003.006a.5.5 0 1 0 .894-.448s-.13-.235-.001-.002l-.002-.003-.006-.012a3.367 3.367 0 0 0-.098-.179 9.61 9.61 0 0 0-1.487-1.934l-.021-.022a8.76 8.76 0 0 0 1.19-1.274 7.206 7.206 0 0 0 .403-.586l.006-.01a.9.9 0 0 1 .003-.006ZM10.5 15c1.3 0 2.376.463 3.229 1.072A6.06 6.06 0 0 1 10.5 17c-1.128 0-1.487-.6-1.487-1s.359-1 1.487-1Z" fill="#212121"/>
</svg>
